X: 3344
T: Marsch (Dessauer)
B:[[Notböcker/Melodier til gamle danske Almuedanse for Violin solo]]
O:Danmark
Z:Søren Bak Vestergaard
M: 2/4
L: 1/8
K: C
G|cGEG|cGEG|cBcd|e2 c2|edef|g2 fe|d2 dd|1 d2 z:|2 d2 z2\
|:dedc|BA G2|dcde|f2 z2|edef|g2 cd|e2 d2|c2 z2:|
(:musicend:)
(:music:)
